assets/icons/24px/outline/tabcells-24px.svg

<svg width="24" height="24" viewBox="0 0 24 24" fill="none" xmlns="http://www.w3.org/2000/svg">
<path d="M20.4142 18.4142L19.7071 17.7071L20.4142 18.4142ZM3.58579 18.4142L2.87868 19.1213L3.58579 18.4142ZM20.4142 5.58579L21.1213 4.87868L20.4142 5.58579ZM7 6H17V4H7V6ZM4 15V9H2V15H4ZM17 18H7V20H17V18ZM20 9V15H22V9H20ZM17 20C17.9145 20 18.701 20.0021 19.3278 19.9179C19.9833 19.8297 20.6117 19.631 21.1213 19.1213L19.7071 17.7071C19.631 17.7832 19.495 17.8774 19.0613 17.9357C18.5988 17.9979 17.9711 18 17 18V20ZM20 15C20 15.9711 19.9979 16.5988 19.9357 17.0613C19.8774 17.495 19.7832 17.631 19.7071 17.7071L21.1213 19.1213C21.631 18.6117 21.8297 17.9833 21.9179 17.3278C22.0021 16.701 22 15.9145 22 15H20ZM2 15C2 15.9145 1.99788 16.701 2.08214 17.3278C2.17027 17.9833 2.36902 18.6117 2.87868 19.1213L4.29289 17.7071C4.21677 17.631 4.12262 17.495 4.06431 17.0613C4.00212 16.5988 4 15.9711 4 15H2ZM7 18C6.02892 18 5.40121 17.9979 4.9387 17.9357C4.50496 17.8774 4.36902 17.7832 4.29289 17.7071L2.87868 19.1213C3.38834 19.631 4.01669 19.8297 4.67221 19.9179C5.29896 20.0021 6.08546 20 7 20V18ZM17 6C17.9711 6 18.5988 6.00212 19.0613 6.06431C19.495 6.12262 19.631 6.21677 19.7071 6.29289L21.1213 4.87868C20.6117 4.36902 19.9833 4.17027 19.3278 4.08214C18.701 3.99788 17.9145 4 17 4V6ZM22 9C22 8.08546 22.0021 7.29896 21.9179 6.67221C21.8297 6.01669 21.631 5.38834 21.1213 4.87868L19.7071 6.29289C19.7832 6.36902 19.8774 6.50496 19.9357 6.9387C19.9979 7.40121 20 8.02892 20 9H22ZM7 4C6.08546 4 5.29896 3.99788 4.67221 4.08214C4.01669 4.17027 3.38834 4.36902 2.87868 4.87868L4.29289 6.29289C4.36902 6.21677 4.50496 6.12262 4.9387 6.06431C5.40121 6.00212 6.02892 6 7 6V4ZM4 9C4 8.02892 4.00212 7.40121 4.06431 6.9387C4.12262 6.50496 4.21677 6.36902 4.29289 6.29289L2.87868 4.87868C2.36902 5.38834 2.17027 6.01669 2.08214 6.67221C1.99788 7.29896 2 8.08546 2 9H4Z" fill="white"/>
<path d="M12.2692 5C12.2692 4.72386 12.0454 4.5 11.7692 4.5C11.4931 4.5 11.2692 4.72386 11.2692 5H12.2692ZM11.2692 19C11.2692 19.2761 11.4931 19.5 11.7692 19.5C12.0454 19.5 12.2692 19.2761 12.2692 19H11.2692ZM21 14.5C21.2761 14.5 21.5 14.2761 21.5 14C21.5 13.7239 21.2761 13.5 21 13.5V14.5ZM3 13.5C2.72386 13.5 2.5 13.7239 2.5 14C2.5 14.2761 2.72386 14.5 3 14.5V13.5ZM21 10.5C21.2761 10.5 21.5 10.2761 21.5 10C21.5 9.72386 21.2761 9.5 21 9.5V10.5ZM3 9.5C2.72386 9.5 2.5 9.72386 2.5 10C2.5 10.2761 2.72386 10.5 3 10.5V9.5ZM11.2692 5V19H12.2692V5H11.2692ZM21 13.5H3V14.5H21V13.5ZM21 9.5H3V10.5H21V9.5Z" fill="white"/>
</svg>

<svg width="24" height="24" fill="none" xmlns="http://www.w3.org/2000/svg"><path d="M20.414 18.414l-.707-.707.707.707zm-16.828 0l-.707.707.707-.707zM20.414 5.586l.707-.707-.707.707zM7 6h10V4H7v2zm-3 9V9H2v6h2zm13 3H7v2h10v-2zm3-9v6h2V9h-2zm-3 11c.915 0 1.701.002 2.328-.082.655-.088 1.284-.287 1.793-.797l-1.414-1.414c-.076.076-.212.17-.646.229-.462.062-1.09.064-2.061.064v2zm3-5c0 .971-.002 1.599-.064 2.061-.059.434-.153.57-.229.646l1.414 1.414c.51-.51.709-1.138.797-1.793C22.002 16.7 22 15.915 22 15h-2zM2 15c0 .915-.002 1.701.082 2.328.088.655.287 1.284.797 1.793l1.414-1.414c-.076-.076-.17-.212-.229-.646C4.002 16.6 4 15.971 4 15H2zm5 3c-.971 0-1.599-.002-2.061-.064-.434-.059-.57-.153-.646-.229l-1.414 1.414c.51.51 1.138.709 1.793.797C5.3 20.002 6.085 20 7 20v-2zM17 6c.971 0 1.599.002 2.061.064.434.059.57.153.646.229l1.414-1.414c-.51-.51-1.138-.709-1.793-.797C18.7 3.998 17.915 4 17 4v2zm5 3c0-.915.002-1.701-.082-2.328-.088-.655-.287-1.284-.797-1.793l-1.414 1.414c.076.076.17.212.229.646C19.998 7.4 20 8.029 20 9h2zM7 4c-.915 0-1.701-.002-2.328.082-.655.088-1.284.287-1.793.797l1.414 1.414c.076-.076.212-.17.646-.229C5.4 6.002 6.029 6 7 6V4zM4 9c0-.971.002-1.599.064-2.061.059-.434.153-.57.229-.646L2.879 4.879c-.51.51-.709 1.138-.797 1.793C1.998 7.3 2 8.085 2 9h2z" fill="#fff"/><path d="M12.27 5a.5.5 0 1 0-1 0h1zm-1 14a.5.5 0 0 0 1 0h-1zM21 14.5a.5.5 0 0 0 0-1v1zm-18-1a.5.5 0 0 0 0 1v-1zm18-3a.5.5 0 0 0 0-1v1zm-18-1a.5.5 0 0 0 0 1v-1zM11.27 5v14h1V5h-1zM21 13.5H3v1h18v-1zm0-4H3v1h18v-1z" fill="#fff"/></svg>
